X:330
T: Cobbler's
M: 6/8
L: 1/8
S: B.Flaherty
Z: B.Black
R: jig
K: D
A | DFA B2 A | def g2 e | fdf ecA | BdB AFE |
DFA B2 A | def g2 e | fdf ecA | Bdc d2 :|
e | fad fad | faa agf | eg=c egc | egg gfe |
fef gfg | agf efg | fed cAG | Adc d2 :|
